google-analytics-dashboard-for-wp/lite/assets/vue/img/badge-dark.svg

<svg width="178" height="58" viewBox="0 0 785 197" fill="none" xmlns="http://www.w3.org/2000/svg">
<g clip-path="url(#clip0_318_39)">
<path d="M747.114 3.69405H65.1642C44.2403 3.69405 27.2781 20.6562 27.2781 41.5801V155.238C27.2781 176.162 44.2403 193.125 65.1642 193.125H747.114C768.038 193.125 785 176.162 785 155.238V41.5801C785 20.6562 768.038 3.69405 747.114 3.69405Z" fill="#393E4B"/>
<mask id="mask0_318_39" style="mask-type:alpha" maskUnits="userSpaceOnUse" x="27" y="3" width="758" height="191">
<path d="M747.114 3.69405H65.1642C44.2403 3.69405 27.2781 20.6562 27.2781 41.5801V155.238C27.2781 176.162 44.2403 193.125 65.1642 193.125H747.114C768.038 193.125 785 176.162 785 155.238V41.5801C785 20.6562 768.038 3.69405 747.114 3.69405Z" fill="#F9F9F9"/>
</mask>
<g mask="url(#mask0_318_39)">
<path d="M213.477 42.7166L143.293 2.41527C137.752 -0.805049 131.454 -0.805049 125.866 2.41527L55.6817 42.7166C55.0187 43.0955 54.3556 43.5217 53.7874 43.9479H87.2692L134.295 17.0014C134.295 17.0014 134.579 16.8593 134.674 16.8593C134.769 16.8593 134.958 16.9067 135.053 17.0014L205.237 57.3028C205.237 57.3028 205.474 57.4448 205.521 57.5395C205.569 57.6816 205.569 57.9184 205.569 57.9658V138.853C205.569 138.853 205.569 139.231 205.521 139.279C205.521 139.326 205.284 139.421 205.237 139.516L135.053 179.817C135.053 179.817 134.769 179.959 134.674 179.959C134.579 179.959 134.39 179.912 134.295 179.817L87.3166 152.87H53.8347C54.403 153.297 125.913 194.403 125.913 194.403C131.454 197.623 137.752 197.623 143.341 194.403L213.525 154.102C219.113 150.834 222.333 145.293 222.333 138.853V98.4092V57.9658C222.333 51.4778 219.16 45.8896 213.572 42.7166H213.477Z" fill="#210F59"/>
<path d="M187.569 67.9136L134.665 37.5352L96.2183 59.5656L92.0608 61.9479H87.2692H53.7874H-0.212513L42.9873 29.5479C44.26 28.5934 45.563 27.7681 46.732 27.0992C46.7384 27.0955 46.7448 27.0919 46.7512 27.0882L116.878 -13.1805C116.883 -13.183 116.887 -13.1855 116.891 -13.1881C128 -19.5837 141.149 -19.6286 152.291 -13.1747L218.278 24.7166H218.326L222.46 27.0638C233.85 33.5312 240.333 45.1983 240.333 57.9658V98.4092V138.853C240.333 151.79 233.631 163.196 222.611 169.64L222.549 169.676L222.488 169.711L152.328 209.999C152.325 210.001 152.322 210.003 152.318 210.004C141.207 216.403 128.055 216.448 116.91 209.99L116.891 209.979L116.868 209.966M187.569 67.9136L204.333 137.941L196.274 123.906L195.449 124.38C195.551 124.311 195.624 124.264 195.657 124.242C195.721 124.201 195.881 124.099 195.733 124.193L195.727 124.197C195.701 124.214 195.59 124.284 195.421 124.396L187.569 128.905M187.569 67.9136V128.905M187.569 67.9136V128.905M116.868 209.966L125.316 195.43C125.169 195.344 125.019 195.254 124.867 195.16L82.5207 170.87H53.8347V152.87L64.6348 138.471C64.1324 138.094 63.5848 137.74 63.2722 137.544M116.868 209.966L116.737 209.89L116.139 209.546L113.868 208.241C111.911 207.116 109.115 205.508 105.757 203.577C99.0435 199.716 90.085 194.564 81.1083 189.397C72.1328 184.232 63.1343 179.05 56.342 175.131C52.9475 173.173 50.0949 171.525 48.069 170.351C47.059 169.765 46.2378 169.288 45.6525 168.946C45.3643 168.777 45.1047 168.625 44.8984 168.502C44.8009 168.445 44.6716 168.367 44.5401 168.287C44.479 168.25 44.3639 168.179 44.2273 168.093C44.1599 168.05 44.042 167.975 43.8981 167.88L43.8947 167.877C43.8027 167.816 43.4562 167.587 43.0346 167.27L-0.164764 134.87H53.8347H87.3166H92.1124L96.2725 137.257L134.669 159.281M116.868 209.966L187.569 128.905M63.2722 137.544C63.2763 137.547 63.2804 137.549 63.2846 137.552C63.3822 137.61 63.5564 137.712 63.8232 137.868C64.3478 138.175 65.1213 138.625 66.121 139.204C68.1146 140.359 70.9419 141.993 74.3314 143.948C78.1029 146.124 82.559 148.692 87.3166 151.432C87.5228 151.551 87.7295 151.67 87.9368 151.789C91.5394 153.864 95.3036 156.031 99.0656 158.196C108.037 163.359 116.992 168.51 123.704 172.37C127.06 174.3 129.855 175.907 131.811 177.031L134.081 178.336L134.263 178.441L126.09 164.207L134.669 159.281M63.2722 137.544C63.1219 137.451 63.026 137.393 63.0155 137.388C63.005 137.383 63.0802 137.43 63.2722 137.544ZM134.669 159.281L143.251 164.203L145.329 165.395L147.023 167.089C145.732 165.798 144.408 164.873 143.245 164.213C141.917 163.46 140.799 163.055 140.177 162.847C138.876 162.414 136.996 161.959 134.674 161.959C132.722 161.959 131.226 162.286 130.67 162.414C129.955 162.579 129.397 162.755 129.081 162.861C128.453 163.07 127.987 163.267 127.808 163.343C127.582 163.44 127.406 163.522 127.301 163.572C127.243 163.6 127.189 163.626 127.141 163.649L127.071 163.684L127.037 163.701L127.02 163.709L127.011 163.713L127.007 163.715L127.005 163.716C127.004 163.717 127.003 163.717 134.406 178.523L134.627 178.65L134.674 178.623L135.13 178.361L136.588 177.524L203.191 139.279L203.923 138.859L203.911 138.853M134.669 159.281L187.569 128.905M203.911 138.853L189.275 131.533C188.779 132.576 188.483 133.461 188.317 134.006C187.979 135.115 187.828 136.008 187.769 136.385C187.64 137.199 187.604 137.824 187.594 137.99L187.594 137.991C187.579 138.246 187.574 138.442 187.572 138.545C187.57 138.606 187.57 138.661 187.569 138.71L187.569 138.782L187.569 138.817L187.569 138.835L187.569 137.97C187.538 138.394 187.521 138.83 187.521 139.279V131.823L187.569 131.776V128.905M203.911 138.853C187.569 138.853 187.569 138.851 187.569 138.85V138.853H203.911Z" stroke="#CFDCFF" stroke-opacity="0.2" stroke-width="36"/>
<path d="M43.3209 120.039H101.097C108.296 130.931 120.656 138.224 134.674 138.224H43.3209C38.301 138.224 34.2283 134.151 34.2283 129.131C34.2283 124.111 38.301 120.039 43.3209 120.039Z" fill="#E63060"/>
<path d="M25.2311 107.205C20.2112 107.205 16.1384 103.132 16.1384 98.1119C16.1384 93.092 20.2112 89.0192 25.2311 89.0192H95.6519C94.9889 91.908 94.61 94.9863 94.61 98.1119C94.61 101.237 94.9889 104.268 95.6519 107.205H25.2311Z" fill="#A735DF"/>
<path d="M7.09266 76.1852C2.07276 76.1852 -2 72.1125 -2 67.0926C-2 62.0727 2.07276 57.9999 7.09266 57.9999H69.7705H132.448C132.164 57.9999 131.88 57.9999 131.596 58.0473H131.454C131.17 58.0473 130.885 58.0946 130.507 58.0946H130.365C130.08 58.0946 129.844 58.142 129.559 58.142H129.417C129.133 58.1893 128.849 58.1893 128.565 58.2841H128.328C127.76 58.3314 127.144 58.5208 126.576 58.5682H126.339C126.055 58.7103 125.818 58.7576 125.534 58.7576H125.297L124.634 58.9471L124.398 59.0418C124.113 59.0891 123.877 59.1838 123.592 59.2786H123.45C123.45 59.2786 123.024 59.468 122.787 59.5627H122.503L121.84 59.8469H121.556C121.272 59.9889 121.035 60.0363 120.751 60.2257H120.609L120.041 60.5099L119.756 60.6519C119.756 60.6519 119.33 60.8887 119.093 60.9361L118.809 61.0782L118.288 61.3149L118.004 61.457C118.004 61.457 117.578 61.6938 117.341 61.7412L117.057 61.8832L116.631 62.12L116.11 62.4042L115.684 62.641L115.305 62.8777L114.926 63.1145L114.405 63.3987L114.121 63.6355L113.742 63.8723L113.221 64.1564L112.842 64.3932L112.605 64.5353C112.179 64.8194 111.658 65.1983 111.232 65.4824H111.185C110.901 65.7666 110.616 66.0033 110.285 66.1928H110.238C109.811 66.619 109.29 66.9979 108.864 67.3294V67.4241C105.881 69.8867 103.276 72.8229 101.145 76.0905H7.09266V76.1852Z" fill="#6433F9"/>
<path d="M177.011 98.3619C177.011 74.9672 158.068 56.0242 134.674 56.0242C111.279 56.0242 92.3359 74.9672 92.3359 98.3619C92.3359 121.757 111.279 140.7 134.674 140.7C158.068 140.7 177.011 121.709 177.011 98.3619ZM98.6819 98.3619C98.6819 78.4717 114.783 62.4175 134.626 62.4175C154.469 62.4175 170.571 78.5191 170.571 98.3619C170.571 118.205 154.469 134.306 134.626 134.306C114.783 134.306 98.6819 118.157 98.6819 98.3619Z" fill="#210F59"/>
<path d="M134.675 115.174C143.957 115.174 151.439 107.644 151.439 98.4091C151.439 89.1744 143.909 81.6445 134.675 81.6445C125.44 81.6445 117.91 89.1744 117.91 98.4091C117.91 107.644 125.44 115.174 134.675 115.174Z" fill="#210F59"/>
<path d="M285.535 115.062V104.527H305.476V93.2767H285.535V81.9374H308.286V70.9999H273V126H309V115.062H285.535Z" fill="white"/>
<path d="M353 126L338.543 105.992L350.701 88.9999H337.084L332.177 96.5419L327.048 88.9999H313.387L325.545 105.992L311 126H324.661L332 115.219L339.339 126H352.956H353Z" fill="white"/>
<path d="M382.355 88.8965V92.9758C379.654 89.4344 374.651 87.9999 370.888 87.9999C361.722 87.9999 353 95.3965 353 107.5C353 119.603 361.722 127 370.888 127C374.695 127 379.699 125.565 382.355 122.024V126.283H394V88.8965H382.355ZM373.411 115.927C368.807 115.927 364.866 112.252 364.866 107.5C364.866 102.748 368.807 99.0723 373.411 99.0723C378.016 99.0723 381.868 102.659 381.868 107.5C381.868 112.341 377.928 115.927 373.411 115.927Z" fill="white"/>
<path d="M420.63 127C427.851 127 433.367 123.471 437 118.199L427.851 112.436C426.326 114.67 423.276 116.01 420.72 116.01C415.248 116.01 412.064 112.168 412.064 107.478C412.064 102.787 415.293 98.9896 420.72 98.9896C423.276 98.9896 426.326 100.33 427.851 102.563L437 96.8006C433.412 91.5291 427.851 87.9999 420.63 87.9999C409.732 87.9999 400 95.5944 400 107.433C400 119.271 409.732 126.955 420.63 126.955V127Z" fill="white"/>
<path d="M458.019 88.525V74.9999H445.932V88.525H439V97.4669H445.932V126H458.019V97.4669H466V88.57H458.019V88.525Z" fill="white"/>
<path d="M536 126L529.194 70.9999H522.612L503 111.803L483.299 70.9999H476.716L470 126H477.119L482.179 84.0803L499.866 120.018H506.179L523.731 84.0803L528.836 126H535.955H536Z" fill="white"/>
<path d="M579.955 107.388C579.955 95.5223 571.995 87.9999 561.292 87.9999C550.589 87.9999 542 95.5223 542 107.388C542 119.254 550.589 127 561.292 127C568.533 127 575.278 123.642 578.606 117.149L572.49 114.731C570.376 118.492 566.149 120.418 561.562 120.418C555.131 120.418 550.32 117.149 549.24 110.478H579.82C579.91 109.448 580 108.418 580 107.343L579.955 107.388ZM549.285 104.522C550.409 97.8059 554.907 94.582 561.292 94.582C567.678 94.582 572.085 98.1193 572.94 104.522H549.285Z" fill="white"/>
<path d="M605 88.3089H596.823V73.9999H589.776V88.3089H583V94.3575H589.776V126H596.823V94.3575H605V88.3089Z" fill="white"/>
<path d="M628.475 88.0445C623.514 88.0445 619.939 90.7619 618.017 97.266V88.8018H611V126H618.017V112.368C618.017 102.567 620.967 94.6822 628.43 94.6822C629.86 94.6822 631.872 94.9941 633.883 95.9741L635 89.4255C633.883 88.7127 631.156 87.9999 628.52 87.9999L628.475 88.0445Z" fill="white"/>
<path d="M643.955 79.3407C646.727 79.3407 649 77.3199 649 74.6703C649 72.0208 646.727 69.9999 643.955 69.9999C641.182 69.9999 639 72.0208 639 74.6703C639 77.3199 641.273 79.3407 643.955 79.3407ZM640.455 126H647.545V88.5019H640.455V126Z" fill="white"/>
<path d="M674.903 126.91C680.711 126.91 685.764 124.669 689 120.993L684.656 116.421C682.351 118.841 679.026 120.365 675.125 120.365C667.855 120.365 661.96 115.165 661.96 107.455C661.96 99.7447 667.811 94.5447 675.125 94.5447C679.026 94.5447 682.351 96.0689 684.656 98.4896L689 93.9171C685.764 90.3309 680.666 87.9999 674.903 87.9999C664.265 87.9999 655 95.6206 655 107.5C655 119.379 664.265 127 674.903 127V126.91Z" fill="white"/>
<path d="M707.713 126.955C715.386 126.955 722 122.701 722 115.761C722 111.507 720.016 106.851 712.387 104.97L706.964 103.627C704.583 103.089 702.246 101.701 702.246 99.1492C702.246 96.2835 704.627 94.0895 708.154 94.0895C711.065 94.0895 713.975 96.0148 714.063 98.8805H720.677C720.677 91.3581 714.195 87.9999 707.978 87.9999C700.57 87.9999 695.367 92.7462 695.367 98.8805C695.367 105.015 698.894 107.925 705.068 109.627L710.094 110.836C713.005 111.463 715.121 112.895 715.121 115.716C715.121 118.761 712.343 120.91 707.713 120.91C703.083 120.91 700.482 118.269 700.394 115.045H694C694.309 122.746 701.099 127 707.713 127V126.955Z" fill="white"/>
</g>
<path d="M747.114 6.06192H65.1642C45.548 6.06192 29.646 21.964 29.646 41.5801V155.238C29.646 174.855 45.548 190.757 65.1642 190.757H747.114C766.73 190.757 782.632 174.855 782.632 155.238V41.5801C782.632 21.964 766.73 6.06192 747.114 6.06192Z" stroke="#2A2D36" stroke-width="4.73576"/>
<g clip-path="url(#clip1_318_39)">
<path d="M132.418 53.0819C107.635 54.4735 88.6496 75.7559 90.0794 100.558C91.5092 125.36 112.798 144.351 137.582 142.959C162.365 141.568 181.35 120.285 179.921 95.483C178.491 70.6808 157.282 51.6904 132.418 53.0819Z" fill="#210F59"/>
<path d="M132.776 58.648C111.09 59.8759 94.4087 78.5389 95.6399 100.312C96.8712 122.004 115.538 138.703 137.304 137.434C158.989 136.206 175.671 117.543 174.44 95.7694C173.169 74.0778 154.541 57.3793 132.776 58.648Z" fill="#D5FEEF"/>
<path d="M165.026 117.543C169.038 111.363 171.183 103.914 170.785 95.9741C169.872 80.2578 158.989 67.4884 144.612 63.5184C143.46 77.1064 142.268 90.4488 140.997 104.16C145.803 106.083 158.155 112.304 165.026 117.584V117.543Z" fill="white"/>
<path d="M132.18 63.0273C113.274 64.0914 98.8173 80.2988 99.9691 99.2074C100.168 101.868 100.565 104.487 101.319 106.902C101.24 106.37 101.2 105.797 101.2 105.224C99.9691 83.2456 116.69 64.4598 138.614 63.191H138.813C136.708 63.0273 134.444 62.9045 132.22 63.0273H132.18Z" fill="white"/>
<path d="M128.923 114.965C129.757 115.865 131.227 115.865 132.061 114.965L157.123 89.0164C157.957 88.116 157.957 86.6426 157.123 85.7422L154.065 82.5498C153.23 81.6494 151.84 81.6494 151.006 82.5498L130.552 103.75L120.94 93.8458C120.106 92.9454 118.716 92.9454 117.882 93.8458L114.824 97.0382C113.989 97.9386 113.989 99.412 114.824 100.312L128.963 114.965H128.923Z" fill="#22BB84"/>
</g>
</g>
<defs>
<clipPath id="clip0_318_39">
<rect width="785" height="196.818" fill="white"/>
</clipPath>
<clipPath id="clip1_318_39">
<rect width="90" height="90" fill="white" transform="translate(90 53)"/>
</clipPath>
</defs>
</svg>

<svg xmlns="http://www.w3.org/2000/svg" width="178" height="58" fill="none" viewBox="0 0 785 197"><g clip-path="url(#a)"><path fill="#393e4b" d="M747.114 3.694H65.164c-20.924 0-37.886 16.962-37.886 37.886v113.658c0 20.924 16.962 37.887 37.886 37.887h681.95c20.924 0 37.886-16.963 37.886-37.887V41.58c0-20.924-16.962-37.886-37.886-37.886"/><mask id="b" width="758" height="191" x="27" y="3" maskUnits="userSpaceOnUse" style="mask-type:alpha"><path fill="#f9f9f9" d="M747.114 3.694H65.164c-20.924 0-37.886 16.962-37.886 37.886v113.658c0 20.924 16.962 37.887 37.886 37.887h681.95c20.924 0 37.886-16.963 37.886-37.887V41.58c0-20.924-16.962-37.886-37.886-37.886"/></mask><g mask="url(#b)"><path fill="#210f59" d="M213.477 42.717 143.293 2.415c-5.541-3.22-11.839-3.22-17.427 0L55.682 42.717c-.663.379-1.326.805-1.895 1.23H87.27l47.026-26.946s.284-.142.379-.142.284.048.379.142l70.184 40.302s.237.142.284.236c.048.143.048.38.048.427v80.887s0 .378-.048.426c0 .047-.237.142-.284.237l-70.184 40.301s-.284.142-.379.142-.284-.047-.379-.142L87.317 152.87H53.835c.568.427 72.078 41.533 72.078 41.533 5.541 3.22 11.839 3.22 17.428 0l70.184-40.301c5.588-3.268 8.808-8.809 8.808-15.249V57.966c0-6.488-3.173-12.076-8.761-15.25z"/><path stroke="#cfdcff" stroke-opacity=".2" stroke-width="36" d="m187.569 67.914-52.904-30.379-38.447 22.03-4.157 2.383H-.213l43.2-32.4a37 37 0 0 1 3.745-2.449l.02-.01 70.126-40.27.013-.007c11.109-6.396 24.258-6.44 35.4.013l65.987 37.892h.048l4.134 2.347c11.39 6.467 17.873 18.134 17.873 30.902v80.887c0 12.937-6.702 24.343-17.722 30.787l-.062.036-.061.035-70.16 40.288-.01.005c-11.111 6.399-24.263 6.444-35.408-.014l-.019-.011-.023-.013m70.701-142.052 16.764 70.027-8.059-14.035-.825.474c.102-.069.175-.116.208-.138.064-.041.224-.143.076-.049l-.006.004c-.026.017-.137.087-.306.199l-7.852 4.509m0-60.991v60.991m0-60.991v60.991m-70.701 81.061 8.448-14.536a21 21 0 0 1-.449-.27l-42.346-24.29H53.835v-18l10.8-14.399a21 21 0 0 0-1.363-.927m53.596 72.422-.131-.076-.598-.344-2.271-1.305-8.111-4.664c-6.714-3.861-15.672-9.013-24.649-14.18a27025 27025 0 0 1-24.766-14.266 5124 5124 0 0 1-8.273-4.78 938 938 0 0 1-2.416-1.405c-.289-.169-.548-.321-.755-.444a26 26 0 0 1-.67-.409l-.33-.213-.003-.003c-.092-.061-.439-.29-.86-.607l-43.2-32.4h92.277l4.16 2.387 38.397 22.024m-17.801 50.685 70.701-81.061m-124.297 8.639.013.008.538.316c.525.307 1.298.757 2.298 1.336 1.994 1.155 4.82 2.789 8.21 4.744a19861 19861 0 0 0 13.606 7.841 96321 96321 0 0 0 43.874 25.242l2.27 1.305.182.105-8.173-14.234 8.579-4.926m-71.397-21.737Zm71.397 21.737 8.582 4.922 2.078 1.192 1.694 1.694a17.7 17.7 0 0 0-3.778-2.876 17 17 0 0 0-3.068-1.366 17.4 17.4 0 0 0-5.503-.888 17.8 17.8 0 0 0-5.593.902c-.628.209-1.094.406-1.273.482a14 14 0 0 0-.667.306l-.07.035-.034.017-.017.008-.009.004-.004.002-.002.001c-.001.001-.002.001 7.401 14.807l.221.127.047-.027.456-.262 1.458-.837 66.603-38.245.732-.42-.012-.006m-69.242 20.428 52.9-30.376m16.342 9.948-14.636-7.32a17.9 17.9 0 0 0-1.506 4.852c-.129.814-.165 1.439-.175 1.605v.001c-.015.255-.02.451-.022.554l-.003.165v.125-.865q-.047.636-.048 1.309v-7.456l.048-.047v-2.871m16.342 9.948c-16.342 0-16.342-.002-16.342-.003v.003z"/><path fill="#e63060" d="M43.32 120.039h57.777c7.199 10.892 19.559 18.185 33.577 18.185H43.321c-5.02 0-9.093-4.073-9.093-9.093s4.073-9.092 9.093-9.092"/><path fill="#a735df" d="M25.231 107.205c-5.02 0-9.093-4.073-9.093-9.093s4.073-9.093 9.093-9.093h70.42a41 41 0 0 0-1.041 9.093c0 3.125.379 6.156 1.042 9.093z"/><path fill="#6433f9" d="M7.093 76.185C2.073 76.185-2 72.112-2 67.093S2.073 58 7.093 58h125.355c-.284 0-.568 0-.852.047h-.142c-.284 0-.569.048-.947.048h-.142c-.285 0-.521.047-.806.047h-.142c-.284.047-.568.047-.852.142h-.237c-.568.047-1.184.237-1.752.284h-.237c-.284.142-.521.19-.805.19h-.237l-.663.19-.236.094c-.285.047-.521.142-.806.237h-.142s-.426.189-.663.284h-.284l-.663.284h-.284c-.284.142-.521.19-.805.379h-.142l-.568.284-.285.142s-.426.237-.663.284l-.284.142-.521.237-.284.142s-.426.237-.663.284l-.284.142-.426.237-.521.284-.426.237-.379.237-.379.236-.521.285-.284.236-.379.237-.521.284-.379.237-.237.142c-.426.284-.947.663-1.373.947h-.047a4.2 4.2 0 0 1-.9.71h-.047c-.427.427-.948.806-1.374 1.137v.095a38.5 38.5 0 0 0-7.719 8.667H7.093z"/><path fill="#210f59" d="M177.011 98.362c0-23.395-18.943-42.338-42.337-42.338S92.336 74.967 92.336 98.362s18.943 42.338 42.338 42.338c23.394 0 42.337-18.991 42.337-42.338m-78.33 0c0-19.89 16.102-35.944 35.945-35.944s35.945 16.101 35.945 35.944-16.102 35.944-35.945 35.944-35.944-16.149-35.944-35.944"/><path fill="#210f59" d="M134.675 115.174c9.282 0 16.764-7.53 16.764-16.765s-7.53-16.765-16.764-16.765c-9.235 0-16.765 7.53-16.765 16.765s7.53 16.765 16.765 16.765"/><path fill="#fff" d="M285.535 115.062v-10.535h19.941v-11.25h-19.941v-11.34h22.751V71H273v55h36v-10.938zM353 126l-14.457-20.008L350.701 89h-13.617l-4.907 7.542L327.048 89h-13.661l12.158 16.992L311 126h13.661L332 115.219 339.339 126zm29.355-37.103v4.079C379.654 89.434 374.651 88 370.888 88 361.722 88 353 95.397 353 107.5s8.722 19.5 17.888 19.5c3.807 0 8.811-1.435 11.467-4.976v4.259H394V88.897zm-8.944 27.03c-4.604 0-8.545-3.675-8.545-8.427s3.941-8.428 8.545-8.428c4.605 0 8.457 3.587 8.457 8.428s-3.94 8.427-8.457 8.427M420.63 127c7.221 0 12.737-3.529 16.37-8.801l-9.149-5.763c-1.525 2.234-4.575 3.574-7.131 3.574-5.472 0-8.656-3.842-8.656-8.532 0-4.691 3.229-8.488 8.656-8.488 2.556 0 5.606 1.34 7.131 3.573L437 96.801C433.412 91.529 427.851 88 420.63 88 409.732 88 400 95.594 400 107.433s9.732 19.522 20.63 19.522zm37.389-38.475V75h-12.087v13.525H439v8.942h6.932V126h12.087V97.467H466V88.57h-7.981zM536 126l-6.806-55h-6.582L503 111.803 483.299 71h-6.583L470 126h7.119l5.06-41.92 17.687 35.938h6.313l17.552-35.938 5.105 41.92zm43.955-18.612c0-11.866-7.96-19.388-18.663-19.388S542 95.522 542 107.388 550.589 127 561.292 127c7.241 0 13.986-3.358 17.314-9.851l-6.116-2.418c-2.114 3.761-6.341 5.687-10.928 5.687-6.431 0-11.242-3.269-12.322-9.94h30.58c.09-1.03.18-2.06.18-3.135zm-30.67-2.866c1.124-6.716 5.622-9.94 12.007-9.94 6.386 0 10.793 3.537 11.648 9.94zM605 88.309h-8.177v-14.31h-7.047v14.31H583v6.049h6.776V126h7.047V94.358H605zm23.475-.264c-4.961 0-8.536 2.717-10.458 9.221v-8.464H611V126h7.017v-13.632c0-9.801 2.95-17.686 10.413-17.686 1.43 0 3.442.312 5.453 1.292L635 89.425c-1.117-.712-3.844-1.425-6.48-1.425zm15.48-8.705c2.772 0 5.045-2.02 5.045-4.67S646.727 70 643.955 70c-2.773 0-4.955 2.02-4.955 4.67s2.273 4.67 4.955 4.67m-3.5 46.66h7.09V88.502h-7.09zm34.448.91c5.808 0 10.861-2.241 14.097-5.917l-4.344-4.572c-2.305 2.42-5.63 3.944-9.531 3.944-7.27 0-13.165-5.2-13.165-12.91s5.851-12.91 13.165-12.91c3.901 0 7.226 1.524 9.531 3.945L689 93.917C685.764 90.331 680.666 88 674.903 88 664.265 88 655 95.62 655 107.5s9.265 19.5 19.903 19.5zm32.81.045c7.673 0 14.287-4.254 14.287-11.194 0-4.254-1.984-8.91-9.613-10.791l-5.423-1.343c-2.381-.538-4.718-1.926-4.718-4.478 0-2.865 2.381-5.06 5.908-5.06 2.911 0 5.821 1.926 5.909 4.791h6.614c0-7.522-6.482-10.88-12.699-10.88-7.408 0-12.611 4.746-12.611 10.88s3.527 9.045 9.701 10.747l5.026 1.209c2.911.627 5.027 2.059 5.027 4.88 0 3.045-2.778 5.194-7.408 5.194s-7.231-2.641-7.319-5.865H694c.309 7.701 7.099 11.955 13.713 11.955z"/></g><path stroke="#2a2d36" stroke-width="4.736" d="M747.114 6.062H65.164c-19.616 0-35.518 15.902-35.518 35.518v113.658c0 19.617 15.902 35.519 35.518 35.519h681.95c19.616 0 35.518-15.902 35.518-35.519V41.58c0-19.616-15.902-35.518-35.518-35.518Z"/><g clip-path="url(#c)"><path fill="#210f59" d="M132.418 53.082c-24.783 1.392-43.768 22.674-42.339 47.476s22.719 43.793 47.503 42.401 43.768-22.674 42.339-47.476-22.639-43.793-47.503-42.401"/><path fill="#d5feef" d="M132.776 58.648c-21.686 1.228-38.367 19.89-37.136 41.664 1.231 21.692 19.898 38.391 41.664 37.122 21.685-1.228 38.367-19.891 37.136-41.665-1.271-21.691-19.899-38.39-41.664-37.121"/><path fill="#fff" d="M165.026 117.543c4.012-6.18 6.157-13.629 5.759-21.569-.913-15.716-11.796-28.486-26.173-32.456a5157 5157 0 0 1-3.615 40.642c4.806 1.923 17.158 8.144 24.029 13.424zM132.18 63.027c-18.906 1.064-33.363 17.272-32.21 36.18.198 2.661.595 5.28 1.349 7.695a11.6 11.6 0 0 1-.119-1.678c-1.23-21.978 15.49-40.764 37.414-42.033h.199c-2.105-.164-4.369-.287-6.593-.164z"/><path fill="#22bb84" d="M128.923 114.965c.834.9 2.304.9 3.138 0l25.062-25.949c.834-.9.834-2.373 0-3.274l-3.058-3.192a2.07 2.07 0 0 0-3.059 0l-20.454 21.2-9.612-9.904a2.07 2.07 0 0 0-3.058 0l-3.058 3.192c-.835.9-.835 2.374 0 3.274l14.139 14.653z"/></g></g><defs><clipPath id="a"><path fill="#fff" d="M0 0h785v196.818H0z"/></clipPath><clipPath id="c"><path fill="#fff" d="M90 53h90v90H90z"/></clipPath></defs></svg>
